images/footer/twitter.svg

<svg width="35" height="30" viewBox="0 0 35 30" fill="none" xmlns="http://www.w3.org/2000/svg">
<path d="M31.377 7.76562C32.7441 6.74023 33.9746 5.50977 34.9316 4.07422C33.7012 4.62109 32.2656 5.03125 30.8301 5.16797C32.334 4.2793 33.4277 2.91211 33.9746 1.20312C32.6074 2.02344 31.0352 2.63867 29.4629 2.98047C28.0957 1.54492 26.25 0.724609 24.1992 0.724609C20.2344 0.724609 17.0215 3.9375 17.0215 7.90234C17.0215 8.44922 17.0898 8.99609 17.2266 9.54297C11.2793 9.20117 5.94727 6.33008 2.39258 2.02344C1.77734 3.04883 1.43555 4.2793 1.43555 5.64648C1.43555 8.10742 2.66602 10.2949 4.64844 11.5938C3.48633 11.5254 2.32422 11.252 1.36719 10.7051V10.7734C1.36719 14.2598 3.82812 17.1309 7.10938 17.8145C6.5625 17.9512 5.87891 18.0879 5.26367 18.0879C4.78516 18.0879 4.375 18.0195 3.89648 17.9512C4.78516 20.8223 7.45117 22.873 10.5957 22.9414C8.13477 24.8555 5.05859 26.0176 1.70898 26.0176C1.09375 26.0176 0.546875 25.9492 0 25.8809C3.14453 27.9316 6.9043 29.0938 11.0059 29.0938C24.1992 29.0938 31.377 18.2246 31.377 8.72266C31.377 8.38086 31.377 8.10742 31.377 7.76562Z" fill="white"/>
</svg>

<svg xmlns="http://www.w3.org/2000/svg" fill="none" viewBox="0 0 35 30"><path fill="#fff" d="M31.377 7.766c1.367-1.026 2.598-2.256 3.555-3.692-1.23.547-2.666.957-4.102 1.094 1.504-.889 2.598-2.256 3.145-3.965a15.16 15.16 0 0 1-4.512 1.777A7.178 7.178 0 0 0 24.199.725a7.177 7.177 0 0 0-7.178 7.177c0 .547.069 1.094.206 1.641a20.825 20.825 0 0 1-14.834-7.52c-.616 1.026-.957 2.256-.957 3.623 0 2.461 1.23 4.649 3.212 5.948-1.162-.069-2.324-.342-3.28-.889v.068c0 3.487 2.46 6.358 5.741 7.041-.546.137-1.23.274-1.845.274-.479 0-.889-.069-1.368-.137.89 2.871 3.555 4.922 6.7 4.99-2.461 1.915-5.537 3.077-8.887 3.077-.615 0-1.162-.069-1.709-.137 3.145 2.05 6.904 3.213 11.006 3.213 13.193 0 20.371-10.87 20.371-20.371v-.957Z"/></svg>
